X: 13794
T: Fosgail An Dorus
R: jig
M: 6/8
K: Amajor
|:AAA cAc|e2f a2a|AAA cAc|e2f B2B|
AAA cAc|e2f a2a|bag a3|fec B2B:|
|:f2f fec|e2e ece|f2f fec|e2c B2f-|
-f2f fec|e2fb3|agf f2f|fec B2B:|

